X:1
T:Buenek (2)
Z:Tous aux Balkans !
F:http://www.tousauxbalkans.net/Buenek/2
O:Bulgarie
P:IABACDBD
Q:1/8=160
M:2/4
L:1/16
K:Am
P:Intro
|: "Am"ecdB cA"D7"BG | "G"AGAB "C"cdec | "Am"ecdB cABG | "G"PA2GA "Am"PA2A2 :|
P:A
|: "Am"e2ed "Dm"Pe2ed | "Am"Pd2AB Tc4 y/ | "D"deed "Dm"d2AB | "Am"cdcB PA4 y/ :|
|: "Am"ecdB cA"D7"BG | "G"AGAB "C"cdec | "Am"ecdB cABG | "G"PA2GA "Am"PA2A2 :|
P:B
K:Am _b ^c
|: "A"A4 y/ e2^c2 | "Dm"d6 y/ ed | "A"^c6 y/ e2 | "Gm"d4 y/ ^cdc_B | "A"A8 y :|
|: "Gm"_B6 y/ d2 | "A"^c2 z2 cdec | "A"d_BP^c2 BGPA2 | "Gm"BABG "A"PA2A2 :|
P:C
K:Am
|: "Am"=c8 y | "D"dc=BA "G"G^FGA | "G"B8 y |1 "D"PcAB2 "G"GABG :|2 "D"PcAB2 "G"G2G2 |
P:D
K:Am _b ^c
|: "A"T^c3A ._B2PA2 | "Gm"GABA "A"PA2eA | "A"T^c3A ._B2PA2 | "Gm"PA2EA "A"PA2 A2 :|

